!!!OTL: Haett ich den Schluessel zum Tage
!!!ARE: Europa, Mitteleuropa, Deutschland
!!!SCT: A0103
!!!YEM: Copyright 1995, estate of Helmut Schaffrath.
**kern
*ICvox
*Ivox
!! Mixed meters:  4/2; 6/2
*M4/2
*k[]
*C:
{2c
=1
2c
2c
2B
1A
2G
=2
1c
2d
2.e
4d
4e
4c
=3
1d}
{1a
=4
*M6/2
1g
2e
1c
2B
=5
2A
1d
1c
4B
4A
=6
1G
2r}
{2G
2c
2d
=7
*M4/2
2e
2e
2d
2e
=8
1a
1g
=9
2f
2e
2d}
{2c
=10
*M6/2
2B
1e
1d
4c
4B
=11
1A
1G
1g
=12
*M4/2
4e
4f
4g
4f
2e
4d
4c
=13
1d
1.c}
==
!!!AGN: Romanze, Ballade, Lied
!! Souterliedekens ad Ps. 47.
!!!ONB: ESAC (Essen Associative Code) Database: ALTDEU
!!!AMT: irregular
!!!AIN: vox
!!!EED: Helmut Schaffrath
!!!EEV: 1.0
*-
